X:1
T:Title
%%score { ( 1 3 5 ) | ( 2 4 ) }
L:1/8
M:4/4
K:Eb
V:1 treble nm="Grand Piano"
V:3 treble 
V:5 treble 
V:2 bass 
V:4 bass 
V:1
 z4 z2[Q:1/4=100] G2 | E2 F2 G2 [EA]2 | [EB]2 [DF]2 [EG]2 [FB]2 | [Ge]4 z4 | [Fd]6 c2 | B4 z4 | %6
 G4 z4 | [G,CE]2 [EG]2 [Fd]2 [Gc]2 | [FB]4 [Ec]4 |[M:3/4] [DB]6 |[M:1/4] [DG]2 | %11
[M:4/4] [G,E]2 [CFA]2 [B,DF]2 [B,DG]2 | [G,E]2 [A,CA]2 [B,DG]2 [B,DF]2 | %13
 [B,EB]2 [B,DG]2 [A,CF]2[K:bass] [G,CE]2 | B,4- [B,D]4 |[M:3/4] E6 |] %16
V:2
 z4 z2 [E,B,E]2 | [E,G,]2 [E,A,E]2 [E,B,E]2 [C,A,]2 | [B,,G,]2 [B,,B,]2 [E,B,]2 [D,B,]2 | %3
 B,2 z2 [F,=A,F]4 | [B,,B,]6[K:treble] [A,DF]2 | [G,B,E]2[K:bass] [E,G,]2 [F,C]2 [B,,F,]2 | %6
 [E,B,]2 [C,E,]2 [D,F,B,]2 G,,2 | C,2 C,2 [D,=B,]2 [E,C]2 | [F,D]4 [F,=A,]4 |[M:3/4] [B,,B,]6 | %10
[M:1/4] [B,,B,]2 |[M:4/4] C,2 A,,2 B,,2 G,,2 | C,2 F,,2 B,,2 A,,2 | G,,2 G,,2 A,,2 A,,2 | z4 A,4 | %15
[M:3/4] [E,G,B,]6 |] %16
V:3
 x8 | x8 | x8 | z2 G,2 c4 | x8 | z2 z c B2 [DA]2 | z2 z A G2 [G,B,F]2 | x8 | x8 |[M:3/4] x6 | %10
[M:1/4] x2 |[M:4/4] x8 | x8 | x6[K:bass] x2 | [F,E]4 z4 |[M:3/4] x6 |] %16
V:4
 x8 | x8 | x8 | C,4 z4 | x6[K:treble] x2 | x2[K:bass] x6 | x8 | x8 | x8 |[M:3/4] x6 |[M:1/4] x2 | %11
[M:4/4] x8 | x8 | x8 | B,,8 |[M:3/4] x6 |] %16
V:5
 x8 | x8 | x8 | x8 | x8 | z2 E2 z4 | z2 C2 z4 | x8 | x8 |[M:3/4] x6 |[M:1/4] x2 |[M:4/4] x8 | x8 | %13
 x6[K:bass] x2 | x8 |[M:3/4] x6 |] %16

